X: 13959
T: Franc A'Phoill
R: jig
M: 6/8
K: Dmixolydian
|:A2D B2D|A2G FED|A2D cBA|GEF GAB|
A2D B2D|A2G FED|cEG cBA|GEF [1 GAB:|2 GED||
|:dfa afd|dfd cAG|FGA cAF|FGG GFE|
dfa afa|geg fdB|cEG cBA|GEF GFE:|
|:def def|def e^cA|def dAF|GEF GFE|
dDd ^cDd|BDd AFD|cEG cBA|GEF GFE:|
|:dDD cDD|BDD ADD|dDD cDD|GEF GFE|
dDD cDD|BDD ADD|cEG cBA|GEF GFE:|
|:d2d d^cd|ABG FED|d2d dAF|FGG GFE|
d2d d^cd|ABG FED|cEG cBA|GEF [1 GFE:|2 GAB||

